X:377
T:Zapjevala Sojka Ptica
Z:Jack Campin, http://www.campin.me.uk/
F:Jack Campin's Nine-Note Tunebook
% last edit 08-03-2013
M:7/8
L:1/8
Q:7/8=60
K:EPhr
 EFD EF^GA| B2c BAA^G|^G2A GFFE|EFD  EF ^G2|
 EFD EF^GA| B2c BAA^G|^G2A GFFE|EFD  E4   :|
^G2A B2 B2| c2B A2A^G| E3  A2A2|ABA ^G2  FE|
 F3  F2 F2|^G2B AGF2 | E3  E2E2|EFD  E4   :|


% == Balkan dances ==========================================================

